X: 601
T: Shi xiang
%%abc-version 2.0
%%abcx-abcm2ps-target-version 5.9.1 (29 Sep 2008)
%%abc-creator hum2abc beta
%%abcx-conversion-date 2013/10/02 07:52:30
%%abc-edited-by Helmut Schaffrath
%%humdrum-veritas 3589284377
%%humdrum-veritas-data 2162049886
%%continueall 1
%%barnumbers 0
L: 1/8
M: 2/4
K: F
c c d f [I:setbarnb 1]| 
c3f | 
d c c c/ D/ | 
F4 | 
G Ac2 | 
c DF2 | 
G c/ c/ c D | 
G2D c | 
G/ A/ G/ F/ E D | 
z2D c | 
G/ A/ G/ F/ E D | 
F4 |]  



